packages/core/src/svgs/snx.svg

<svg width="24" height="24" viewBox="0 0 24 24" fill="none" xmlns="http://www.w3.org/2000/svg">
<g clip-path="url(#clip0_31_18980)">
<path d="M0 0H24V24H0V0Z" fill="#1B1230"/>
<path d="M12.827 10.9288C13.2513 10.9416 13.6156 11.5588 13.6156 12.0002C13.6156 12.4416 13.2513 13.0588 12.827 13.0716H10.7313C8.71704 13.0459 6.86133 11.0488 6.86133 8.99592C6.86133 6.93878 8.71704 5.16878 10.7313 5.14307H16.1356C16.5599 5.15592 17.1428 5.51164 17.1428 6.19307C17.1428 6.87021 16.787 7.26449 16.1356 7.28592H10.7313C10.2775 7.29134 9.84345 7.47258 9.52052 7.79151C9.19759 8.11043 9.01096 8.54219 8.9999 8.99592C8.9999 10.1531 9.59133 10.9288 10.7313 10.9288H12.8313H12.827Z" fill="white"/>
<path d="M11.1728 13.0716C10.7485 13.0587 10.3842 12.4416 10.3842 12.0001C10.3842 11.5587 10.7485 10.9416 11.1728 10.9287H13.2685C15.2828 10.9544 17.1428 12.9516 17.1428 15.0044C17.1428 17.0616 15.2828 18.8316 13.2685 18.8573H7.86421C7.23421 18.8401 6.87421 18.5144 6.85706 17.8244C6.84974 17.5453 6.95036 17.2742 7.13797 17.0674C7.32558 16.8606 7.58571 16.7342 7.86421 16.7144H13.2685C14.1685 16.7144 14.9999 16.0287 14.9999 15.0044C14.9999 13.8473 14.4085 13.0716 13.2685 13.0716H11.1728Z" fill="white"/>
<path d="M6.94276 17.4429L14.7513 6.57865C15.1199 5.92722 16.5342 6.08579 17.1256 6.31722L9.46705 16.9672C9.15419 17.4601 7.60705 17.4944 6.93848 17.4387L6.94276 17.4429Z" fill="#DAD9DC" fill-opacity="0.45"/>
</g>
<defs>
<clipPath id="clip0_31_18980">
<rect width="24" height="24" fill="white"/>
</clipPath>
</defs>
</svg>

<svg xmlns="http://www.w3.org/2000/svg" width="24" height="24" fill="none" viewBox="0 0 24 24"><g clip-path="url(#a)"><path fill="#1B1230" d="M0 0h24v24H0z"/><path fill="#fff" d="M12.827 10.929c.424.013.789.63.789 1.071 0 .442-.365 1.059-.789 1.072h-2.096c-2.014-.026-3.87-2.023-3.87-4.076 0-2.057 1.856-3.827 3.87-3.853h5.405c.424.013 1.007.369 1.007 1.05 0 .677-.356 1.071-1.007 1.093H10.73A1.753 1.753 0 0 0 9 8.996c0 1.157.591 1.933 1.731 1.933h2.1z"/><path fill="#fff" d="M11.173 13.072c-.425-.013-.789-.63-.789-1.072 0-.441.364-1.058.789-1.071h2.095c2.015.025 3.875 2.023 3.875 4.075 0 2.058-1.86 3.828-3.875 3.853H7.865c-.63-.017-.99-.343-1.007-1.033a1.084 1.084 0 0 1 1.007-1.11h5.405c.9 0 1.73-.685 1.73-1.71 0-1.157-.59-1.932-1.73-1.932z"/><path fill="#DAD9DC" fill-opacity=".45" d="M6.943 17.443 14.75 6.579c.369-.652 1.783-.493 2.375-.262l-7.659 10.65c-.313.493-1.86.527-2.529.472z"/></g><defs><clipPath id="a"><path fill="#fff" d="M0 0h24v24H0z"/></clipPath></defs></svg>
